X:66
T:Parliament Square
O:No 66 Wm Clarke MS  Feltwell, Norfolk
N:Bar 10 MS gives 5 crocjhets
I:abc2nwc
M:2/2
L:1/8
K:C
cd e2cd e2|f2e2d2c2|Bcdc BGAB|c2e2g2fd|
cd e2cd e2|f2e2d2c2|Bcdc BfdB|c2e2c2z2:|
|:c2ed cegc'|a2f"^*"a g2e2|c2ed cegc'|b2d'2g3f|
ef g2ef g2|a2g2f2e2|defd BfdB|c2e2c2z2:|

